X:336
T:Reel 336
M:4/4
K:Emin
L:1/8
B>A (3GFE G>E (3EFE |F>D (3DDD F>D (3DDD |B>G (3GGG B>G (3GFG |AFDF A2:|A2|G>E (3EEE B,>E (3EDE |F>D (3DDD FAAF|A>D (3DDD F>D (3DED |F>D (3DDD A,>D (3FDD |A>D (3DDD F>D (3DED |CFEF  (3EDE e2de|c>A (3AAA G>E (3FED |ADDF dAGA|B>A (3AGF G>G (3EDE |F>D (3DDD A>D (3DDD |F>D (3DDD c>D (3DDD |F>A (3AGA B2GEDE|FDDF DF (3AGF |D>D (3DDD A>D (3DDD |E>D (3D
